!!!COM: Palestrina, Giovanni Perluigi da
!!!OPR: Missa Sine nomine (1591)
!!!OMD: Credo
!!!OTL: Crucifixus
**kern	**kern	**kern	**kern
*Ibass	*Itenor	*Itenor	*Icalto
!Bassus	!Tenor 2	!Tenor 1	!Altus
*clefF4	*clefGv2	*clefGv2	*clefG2
*k[b-]	*k[b-]	*k[b-]	*k[b-]
*G:dor	*G:dor	*G:dor	*G:dor
*M4/2	*M4/2	*M4/2	*M4/2
=68	=68	=68	=68
0D	0F#	0A	0d
=69	=69	=69	=69
1GG	1.G	1B-	1d
1BB-	.	1B-	1d
.	[2F	.	.
=70	=70	=70	=70
1C	2F]	1G	1c
.	2E	.	.
4GG	2G	[1d	2B-
4AA	.	.	.
4BB-	2G	.	2B-
4C	.	.	.
=71	=71	=71	=71
4D	4F	2d]	2.A
4E	4G	.	.
1F	4A	2c	.
.	4B-	.	4G
.	2c	[1A	2F
2D	2d	.	[2f
=72	=72	=72	=72
2F	2c	2A]	4f]
.	.	.	4e-
2G	1B-	2B-	1d
1E-	.	1G	.
.	4A	.	2c
.	4G	.	.
=73	=73	=73	=73
0D	2A	2.F	2d
.	2A	.	2d
.	.	4G	.
.	2.d	1A	2.f
.	4c	.	4e
=74	=74	=74	=74
0r	2B-	2r	2d
.	2A	2A	2c#
.	2.G	2.B-	1d
.	4A	4A	.
=75	=75	=75	=75
2r	2B-	2G	1d
2D	2A	2F#	.
2.E-	2r	2.G	1B-
.	2G	.	.
4D	.	4F	.
=76	=76	=76	=76
2C	2e-	4G	2c
.	.	4A	.
2BB-	2d	2B-	2d
1C	2.c	4A	2e-
.	.	4G	.
.	.	[2G	2e-
.	4B-	.	.
=77	=77	=77	=77
1D	2A	2G]	1d
.	2A	2F#	.
[1G	[1B	1r	1d
=78	=78	=78	=78
1G]	1B]	0G	1d
1C	1c	.	1e
=79	=79	=79	=79
1F	1c	1A	1.f
1BB-	1d	1B-	.
.	.	.	2d
=80	=80	=80	=80
1C	1c	2A	1e-
.	.	1G	.
1D	1A	.	1d
.	.	2F#	.
=81	=81	=81	=81
0GG	0B	1G	1d
.	.	2r	2r
.	.	2G	2g
=82	=82	=82	=82
0r	0r	2A	2f
.	.	2c	2e-
.	.	2.B-	2.d
.	.	4A	4c
=83	=83	=83	=83
1r	1r	2G	2B-
.	.	2F#	2A
2r	2r	4G	1B-
.	.	4A	.
2G	2G	4B-	.
.	.	8A	.
.	.	8B-	.
=84	=84	=84	=84
2F	2A	2A	1c
2E-	2c	1G	.
2.D	2B-	.	2.d
.	2A	2F	.
4C	.	.	4e
=85	=85	=85	=85
2BB-	2d	2B-	[0f
2AA	1c	2c	.
1BB-	.	1d	.
.	[2B-	.	.
=86	=86	=86	=86
1F	2B-]	1c	0f]
.	2A	.	.
2BB-	2B-	1d	.
2B-	2d	.	.
=87	=87	=87	=87
2A	2c	0r	2r
2G	2B-	.	2g
2.A	2.c	.	2f
.	.	.	2e
4G	4B-	.	.
=88	=88	=88	=88
2F	2A	0r	4f
.	.	.	4e-
2.G	2.B-	.	4d
.	.	.	4c
.	.	.	4B-
4F	4A	.	4c
2D	2F	.	[2d
=89	=89	=89	=89
1E-	1G	1r	2d]
.	.	.	2c
1D	1A	2r	2d
.	.	2d	2f
=90	=90	=90	=90
2r	2r	2c	2e-
2G	2B-	2B-	4d
.	.	.	4e
2F	2A	2.c	4f
.	.	.	8e
.	.	.	8f
2E	2G	.	2g
.	.	4B-	.
=91	=91	=91	=91
4F	2c	2A	2.f
4E-	.	.	.
4D	2.d	2.B-	.
4C	.	.	4e-
4BB-	.	.	2d
4C	4c	4A	.
2D	4A	2F	[2f
.	4B	.	.
=92	=92	=92	=92
1C	1c	1G	2f]
.	.	.	2e
1F	2c	2A	[1f
.	[2A	[2F	.
=93	=93	=93	=93
0r	4A]	4F]	0f]
.	4B-	4G	.
.	2c	2A	.
.	2d	2B-	.
.	2A	2c	.
=94	=94	=94	=94
2r	2.B-	2.d	2r
2.BB-	.	.	2.d
.	4c	4c	.
.	1d	[1B-	.
4C	.	.	4e-
2D	.	.	2f
=95	=95	=95	=95
2E-	1c	2B-]	2g
2F	.	2A	2f
4G	4B-	1B-	2.d
4A	4c	.	.
[2B-	4d	.	.
.	4B-	.	4e
=96	=96	=96	=96
4B-]	1c	1F	1f
8A	.	.	.
8G	.	.	.
2A	.	.	.
2B-	[1B-	2r	2d
2BB-	.	2d	2f
=97	=97	=97	=97
2BB-	1B-]	2d	2f
2BB-	.	2d	2f
2C	2r	2c	2e
2D	2d	2A	2f#
=98	=98	=98	=98
2GG	2d	1B-	1g
1G	2d	.	.
.	2c	1A	1r
2F#	2A	.	.
=99	=99	=99	=99
1G	4B-	2G	2r
.	4c	.	.
.	4d	2G	2B-
.	4e-	.	.
1r	2.d	2G	2B-
.	.	2G	2B-
.	8c	.	.
.	8B-	.	.
=100	=100	=100	=100
0r	2A	2F	2c
.	1B-	2D	2d
.	.	1E-	2G
.	4A	.	[2g
.	4G	.	.
=101	=101	=101	=101
1r	1A	1D	2g]
.	.	.	2f#
2r	1G	2G	2.g
2G	.	2B-	.
.	.	.	8f
.	.	.	8e-
=102	=102	=102	=102
2G	0r	2B-	1d
2G	.	2B-	.
2F	.	2c	1r
2D	.	2d	.
=103	=103	=103	=103
0E-	2r	0G	2r
.	2B-	.	2g
.	2B-	.	2g
.	2c	.	2g
=104	=104	=104	=104
1D	2d	2A	2f
.	2d	2B	2d
1C	2G	2.c	1e-
.	[2c	.	.
.	.	4B-	.
=105	=105	=105	=105
0D	2c]	2A	0d
.	2B-	1G	.
.	1A	.	.
.	.	2F#	.
=106	=106	=106	=106
[0GG	[0B	[0G	[0d
=107	=107	=107	=107
0GG]	0B]	0G]	0d]
*-	*-	*-	*-
!!!CDT: 1525/^1526/-1594/2/2
!!!OCY: Italia
!!!AGN: Mass (Parody)
!!!AST: renaissance, vocal
!!!ASW: Motet (unidentified)
!!!PWK: Masses, Book 1
!!!RNB: Cadence finals: D
!!!YOR: Le Opere Complete, v. 1, p. 182
!!!YOO: Rome, Italy: Fratelli Scalera
!!!END: 1992//
!!!EED: John Miller
!!!YEC: Copyright 2000, John Miller
!!!YEN: United States of America
!!!YEM: Rights to all derivative electronic formats reserved.
!!!YEM: Refer to licensing agreement for further details.
!!!YEM: This file must be accompanied by the licensing agreement.
!!!YEM: A copy of the licensing agreement may be found at http://www.music-cog.ohio-state.edu/HumdrumDatabases/Palestrina/license.txt
!!!EMD: converted to Humdrum by Bret Aarden
